images/saveAll.svg

<svg width="32" height="32" viewBox="0 0 32 32" fill="none" xmlns="http://www.w3.org/2000/svg">
    <path d="M30.5168 8.09654L25.3575 3.22015C25.2119 3.08291 25.0112 3 24.7437 3H7.86516C7.37753 3 7 3.37753 7 3.86516V24.9439C7 25.4315 7.37753 25.809 7.86516 25.809H29.9349C30.4225 25.809 30.8 25.4315 30.8 24.9439V8.74152C30.8 8.47408 30.6953 8.26532 30.5168 8.09654V8.09654ZM17.5394 4.74607H20.4654V9.66976H17.5394V4.74607ZM29.0697 24.063H8.73028V4.74607H12.317V11.6044H22.4943V4.74607H24.4293L29.0697 9.08786V24.063Z" fill="#C5C5C5" />
    <path fill-rule="evenodd" clip-rule="evenodd" d="M8 8H1.86516C1.37753 8 1 8.37753 1 8.86516V29.9439C1 30.4315 1.37753 30.809 1.86516 30.809H23.9349C24.4225 30.809 24.8 30.4315 24.8 29.9439V25H23.0697V29.063H2.73028V9.74607H8V8Z" fill="#C5C5C5" />
</svg>

<svg width="16" height="16" viewBox="0 0 32 32" fill="none" xmlns="http://www.w3.org/2000/svg">
    <path
        d="m30.517 8.097-5.16-4.877c-.145-.137-.346-.22-.613-.22H7.865A.853.853 0 0 0 7 3.865v21.079c0 .488.378.865.865.865h22.07a.853.853 0 0 0 .865-.865V8.742a.852.852 0 0 0-.283-.645zm-12.978-3.35h2.926V9.67H17.54V4.746zm11.53 19.316H8.73V4.746h3.587v6.858h10.177V4.746h1.935l4.64 4.342v14.975z"
        fill="#C5C5C5" />
    <path fill-rule="evenodd" clip-rule="evenodd"
        d="M8 8H1.865A.853.853 0 0 0 1 8.865v21.079c0 .488.378.865.865.865h22.07a.853.853 0 0 0 .865-.865V25h-1.73v4.063H2.73V9.746H8V8z"
        fill="#C5C5C5" />
</svg>
